build/location/MapLocationSolid.svg

<svg xmlns="http://www.w3.org/2000/svg" fill="none" viewBox="0 0 24 24" focusable="false"><path d="M0 0H24V24H0z"/><path fill="#74767B" fill-rule="evenodd" d="M16.2745 6.98833C15.9284 4.15524 13.5988 2.87686 11.4056 3.00931C9.21337 3.1417 7.04035 4.68981 7.00044 7.54042C6.9878 8.44273 7.2746 9.35568 7.68484 10.1994C8.09654 11.0461 8.6453 11.849 9.18764 12.5388C9.73093 13.2299 10.2745 13.816 10.6819 14.2291C10.8859 14.436 11.0563 14.6001 11.1764 14.7131C11.2365 14.7696 11.284 14.8133 11.3168 14.8433C11.4817 14.9893 11.7822 15.0367 11.9471 14.8907C11.9799 14.8607 12.0799 14.7696 12.14 14.7131C12.2601 14.6001 12.4305 14.436 12.6345 14.2291C13.0418 13.816 13.5855 13.2299 14.1287 12.5388C14.6711 11.849 15.2199 11.0461 15.6316 10.1994C16.0418 9.35568 16.3286 8.44273 16.316 7.54042C16.3136 7.37336 16.2989 7.18783 16.2745 6.98833ZM11.6579 4.89928C10.1218 4.89928 8.87657 6.1445 8.87657 7.68056C8.87657 9.21662 10.1218 10.4618 11.6579 10.4618C13.1939 10.4618 14.4391 9.21662 14.4391 7.68056C14.4391 6.1445 13.1939 4.89928 11.6579 4.89928ZM7.12078 11.2368L4.67355 10.5026C3.83946 10.2524 3 10.8769 3 11.7478L3 18.5333C3 19.1074 3.37657 19.6135 3.92645 19.7785L7.68775 20.9069C7.89274 20.9683 8.10975 20.9783 8.3195 20.9358L15.1952 19.5424C15.3956 19.5018 15.6027 19.509 15.7997 19.5635L19.3537 20.5456C20.1817 20.7744 21 20.1516 21 19.2926L21 12.49C21 11.9054 20.6098 11.3927 20.0463 11.237L16.9177 10.3724C16.7271 10.3197 16.5274 10.4149 16.441 10.5927C16.0492 11.3983 15.5143 12.2324 14.8363 13.0949C14.3632 13.6966 13.8429 14.2852 13.2753 14.8608C13.0972 15.0415 12.9243 15.2107 12.7567 15.3684C12.703 15.4189 12.652 15.4661 12.6039 15.51C12.54 15.5665 12.4121 15.6703 12.3401 15.713C12.2717 15.7536 12.1995 15.7881 12.1237 15.8162C12.0502 15.8435 11.9755 15.8641 11.8995 15.878C11.8201 15.8926 11.7392 15.8999 11.657 15.8998C11.5755 15.8997 11.4953 15.8924 11.4164 15.8779C11.3401 15.8639 11.2649 15.8431 11.191 15.8155C11.1407 15.7967 11.0918 15.7751 11.0444 15.7505C10.9458 15.6995 10.8537 15.636 10.7679 15.56C10.7211 15.5174 10.6135 15.419 10.5597 15.3684C10.3921 15.2107 10.2192 15.0415 10.0411 14.8608C9.47349 14.2852 8.95317 13.6966 8.48011 13.0949C8.01894 12.5083 7.624 11.9348 7.29528 11.3745C7.25644 11.3083 7.1943 11.2588 7.12078 11.2368Z"/></svg>

<svg xmlns="http://www.w3.org/2000/svg" fill="none" viewBox="0 0 24 24" focusable="false"><path fill="#74767B" fill-rule="evenodd" d="M16.27 6.98C15.92 4.15 13.59 2.87 11.4 3 9.21 3.14 7.04 4.68 7 7.54c-.02.9.27 1.81.68 2.65.41.85.96 1.65 1.5 2.34.55.69 1.09 1.28 1.5 1.69.2.21.37.38.49.49.06.05.11.1.14.13.17.14.47.19.63.05.04-.03.13-.13.19-.18.13-.11.3-.28.5-.49.41-.41.95-1 1.49-1.69.55-.69 1.1-1.49 1.51-2.34.41-.84.69-1.75.68-2.65 0-.17-.02-.36-.04-.56m-4.62-2.09c-1.53 0-2.78 1.25-2.78 2.79 0 1.53 1.25 2.78 2.78 2.78a2.78 2.78 0 0 0 2.78-2.78c0-1.54-1.24-2.79-2.78-2.79m-4.53 6.34-2.45-.73c-.84-.25-1.67.37-1.67 1.24v6.79c0 .57.37 1.08.92 1.24l3.76 1.13q.315.09.63.03l6.88-1.39c.2-.04.41-.04.6.02l3.56.98A1.3 1.3 0 0 0 21 19.29v-6.8c0-.59-.4-1.1-.96-1.26l-3.13-.86a.39.39 0 0 0-.47.22c-.4.8-.93 1.64-1.61 2.5q-.705.9-1.56 1.77c-.18.18-.35.35-.52.5l-.15.15c-.06.05-.19.16-.26.2s-.15.07-.22.1-.15.05-.23.06c-.07.02-.16.02-.24.02s-.16 0-.24-.02a1 1 0 0 1-.22-.06l-.15-.06c-.1-.06-.19-.12-.28-.19-.04-.05-.15-.15-.21-.2a21.038 21.038 0 0 1-2.07-2.27c-.47-.59-.86-1.16-1.19-1.72a.3.3 0 0 0-.17-.14"/></svg>
